X: 353
T: Muddy Roads To Texas
C:Hugh Farr
B: canberra pickers and fiddlers
B: tunes
M:C|
Q: 1/4=100
K:G
V:1 
_B-|"G"BAGB AGED|G2G3D ED|GDGD EDB,G,|"D"A,2A,3B, CB,|
A,2B,2C2D2|FA3A2AB|AGFE DCB,A,|"G"G,2G,4-G,:|
[G,D]-|"G"[G,D]2B2BcBA|D2B2BcBA|D2B2dcBc|"D"A2A3G FG|
A2B2c2d2|(3efga2a3g|fgef dcBA|"G"G2G4-G||
|:_b-|"G"bagb aged|g2g3d ed|g2g2edBd|"D"A2A3G FG|
A2B2c2d2|(3efga2a3g|fgef dcBA|"G"G2G4-G:|
% abcbook-tune_id 67ab69d27304ac641fef7587
% abcbook-tune_composer_id 
% abcbook-link-0 https://www.youtube.com/watch?v=b8YNszO_i6Q
% abcbook-boost 0
% abcbook-difficulty 0
% abcbook-tags old time tunes
% abcbook-tablature 
% abcbook-transpose 
% abcbook-tuning GDAE
% abcbook-lastupdated 1739287371580
% abcbook-src-url 
% abcbook-soundfonts 
% abcbook-repeats 1


